mimes/128/application-epub+zip.svg

<?xml version="1.0" encoding="UTF-8" standalone="no"?>
<svg
   xmlns:dc="http://purl.org/dc/elements/1.1/"
   xmlns:cc="http://creativecommons.org/ns#"
   xmlns:rdf="http://www.w3.org/1999/02/22-rdf-syntax-ns#"
   xmlns:svg="http://www.w3.org/2000/svg"
   xmlns="http://www.w3.org/2000/svg"
   xmlns:xlink="http://www.w3.org/1999/xlink"
   id="svg4134"
   height="128"
   width="128"
   version="1.1">
  <defs
     id="defs4136">
    <radialGradient
       gradientTransform="matrix(1.3333434,0,0,0.08199654,-20.35227,-3.924137)"
       gradientUnits="userSpaceOnUse"
       xlink:href="#linearGradient3287"
       id="radialGradient3231"
       fy="114.8309"
       fx="64.388718"
       r="52.5"
       cy="114.8309"
       cx="64.388718" />
    <linearGradient
       id="linearGradient3287">
      <stop
         offset="0"
         style="stop-color:#000000;stop-opacity:1"
         id="stop3289" />
      <stop
         offset="1"
         style="stop-color:#000000;stop-opacity:0"
         id="stop3291" />
    </linearGradient>
    <linearGradient
       gradientTransform="matrix(2.4594594,0,0,2.8918915,4.9729783,-5.405372)"
       gradientUnits="userSpaceOnUse"
       xlink:href="#linearGradient3731"
       id="linearGradient3142"
       y2="43"
       x2="23.99999"
       y1="4.999989"
       x1="23.99999" />
    <linearGradient
       id="linearGradient3731">
      <stop
         offset="0"
         style="stop-color:#ffffff;stop-opacity:1"
         id="stop3733" />
      <stop
         offset="0.02706478"
         style="stop-color:#ffffff;stop-opacity:0.23529412"
         id="stop3735" />
      <stop
         offset="0.97377032"
         style="stop-color:#ffffff;stop-opacity:0.15686275"
         id="stop3737" />
      <stop
         offset="1"
         style="stop-color:#ffffff;stop-opacity:0.39215687"
         id="stop3739" />
    </linearGradient>
    <radialGradient
       gradientTransform="matrix(5.0514012e-8,6.5315873,-6.427867,-1.2033678e-7,122.51425,-37.8306)"
       gradientUnits="userSpaceOnUse"
       xlink:href="#linearGradient2867-449-88-871-390-598-476-591-434-148-57-177-641-289-620-227-114-444-680-744-8"
       id="radialGradient3145"
       fy="8.4497671"
       fx="7.4956832"
       r="19.99999"
       cy="8.4497671"
       cx="7.4956832" />
    <linearGradient
       id="linearGradient2867-449-88-871-390-598-476-591-434-148-57-177-641-289-620-227-114-444-680-744-8">
      <stop
         offset="0"
         style="stop-color:#5f5f5f;stop-opacity:1"
         id="stop5430-8" />
      <stop
         offset="0.26238"
         style="stop-color:#4f4f4f;stop-opacity:1"
         id="stop5432-3" />
      <stop
         offset="0.704952"
         style="stop-color:#3b3b3b;stop-opacity:1"
         id="stop5434-1" />
      <stop
         offset="1"
         style="stop-color:#2b2b2b;stop-opacity:1"
         id="stop5436-8" />
    </linearGradient>
    <linearGradient
       gradientTransform="matrix(2.5999999,0,0,2.7948717,5.8000043,-3.076929)"
       gradientUnits="userSpaceOnUse"
       xlink:href="#linearGradient3707-319-631-407-324-616-674-812-821-107-178-392-400-6"
       id="linearGradient3147"
       y2="3.8990016"
       x2="24"
       y1="44"
       x1="24" />
    <linearGradient
       id="linearGradient3707-319-631-407-324-616-674-812-821-107-178-392-400-6">
      <stop
         offset="0"
         style="stop-color:#272727;stop-opacity:1"
         id="stop5440-4" />
      <stop
         offset="1"
         style="stop-color:#454545;stop-opacity:1"
         id="stop5442-3" />
    </linearGradient>
    <linearGradient
       gradientTransform="matrix(2.6000003,0,0,2.7500175,0.5993211,0.124924)"
       gradientUnits="userSpaceOnUse"
       xlink:href="#linearGradient2346"
       id="linearGradient3156"
       y2="3"
       x2="10.654308"
       y1="1"
       x1="10.654308" />
    <linearGradient
       id="linearGradient2346">
      <stop
         offset="0"
         style="stop-color:#f5f5f5;stop-opacity:1"
         id="stop2348" />
      <stop
         offset="1"
         style="stop-color:#e1e1e1;stop-opacity:1"
         id="stop2350" />
    </linearGradient>
    <linearGradient
       gradientTransform="matrix(2.6000003,0,0,0.28205131,5.8000003,0.230768)"
       gradientUnits="userSpaceOnUse"
       xlink:href="#linearGradient3707-319-631-407-324-616-674-812-821-107-178-392-400-6-2"
       id="linearGradient3158"
       y2="3.8990016"
       x2="24"
       y1="44"
       x1="24" />
    <linearGradient
       id="linearGradient3707-319-631-407-324-616-674-812-821-107-178-392-400-6-2">
      <stop
         offset="0"
         style="stop-color:#272727;stop-opacity:1"
         id="stop5440-4-8" />
      <stop
         offset="1"
         style="stop-color:#454545;stop-opacity:1"
         id="stop5442-3-8" />
    </linearGradient>
    <linearGradient
       gradientTransform="matrix(2.6646671,0,0,4.0925893,4.3539233,-10.571687)"
       gradientUnits="userSpaceOnUse"
       xlink:href="#linearGradient2346"
       id="linearGradient4333"
       y2="4.882647"
       x2="24.640038"
       y1="3.1234391"
       x1="24.62738" />
    <linearGradient
       gradientTransform="matrix(1.9009526,0,0,1.9880919,6.8243933,0.040828)"
       gradientUnits="userSpaceOnUse"
       xlink:href="#linearGradient4652"
       id="linearGradient4335"
       y2="0.065301567"
       x2="54.887218"
       y1="0.065301567"
       x1="5.2122574" />
    <linearGradient
       id="linearGradient4652">
      <stop
         offset="0"
         style="stop-color:#769a28;stop-opacity:1"
         id="stop4654" />
      <stop
         offset="0.95970964"
         style="stop-color:#709325;stop-opacity:1"
         id="stop4656" />
      <stop
         offset="0.96326458"
         style="stop-color:#c2c2c2;stop-opacity:1"
         id="stop4658" />
      <stop
         offset="1"
         style="stop-color:#c2c2c2;stop-opacity:1"
         id="stop4660" />
    </linearGradient>
    <radialGradient
       gradientTransform="matrix(2.003784,0,0,1.4,27.98813,-17.4)"
       gradientUnits="userSpaceOnUse"
       xlink:href="#linearGradient3688-166-749"
       id="radialGradient2455"
       fy="43.5"
       fx="4.9929786"
       r="2.5"
       cy="43.5"
       cx="4.9929786" />
    <linearGradient
       id="linearGradient3688-166-749">
      <stop
         offset="0"
         style="stop-color:#181818;stop-opacity:1"
         id="stop2883" />
      <stop
         offset="1"
         style="stop-color:#181818;stop-opacity:0"
         id="stop2885" />
    </linearGradient>
    <radialGradient
       gradientTransform="matrix(2.003784,0,0,1.4,-20.01187,-104.4)"
       gradientUnits="userSpaceOnUse"
       xlink:href="#linearGradient3688-464-309"
       id="radialGradient2457"
       fy="43.5"
       fx="4.9929786"
       r="2.5"
       cy="43.5"
       cx="4.9929786" />
    <linearGradient
       id="linearGradient3688-464-309">
      <stop
         offset="0"
         style="stop-color:#181818;stop-opacity:1"
         id="stop2889" />
      <stop
         offset="1"
         style="stop-color:#181818;stop-opacity:0"
         id="stop2891" />
    </linearGradient>
    <linearGradient
       gradientUnits="userSpaceOnUse"
       xlink:href="#linearGradient3702-501-757"
       id="linearGradient2459"
       y2="39.999443"
       x2="25.058096"
       y1="47.027729"
       x1="25.058096" />
    <linearGradient
       id="linearGradient3702-501-757">
      <stop
         offset="0"
         style="stop-color:#181818;stop-opacity:0"
         id="stop2895" />
      <stop
         offset="0.5"
         style="stop-color:#181818;stop-opacity:1"
         id="stop2897" />
      <stop
         offset="1"
         style="stop-color:#181818;stop-opacity:0"
         id="stop2899" />
    </linearGradient>
    <linearGradient
       x1="32.255745"
       y1="4.683187"
       x2="32.255745"
       y2="60.875908"
       id="linearGradient3153-1"
       xlink:href="#linearGradient3319-4"
       gradientUnits="userSpaceOnUse"
       gradientTransform="matrix(1.8829042,0,0,1.9602517,4.586333,-0.170081)" />
    <radialGradient
       xlink:href="#linearGradient8967-7"
       id="radialGradient3831-6"
       cx="32.5"
       cy="8.55651"
       fx="32.5"
       fy="8.55651"
       r="23.499998"
       gradientTransform="matrix(0,5.5869102,-6.6684934,0,121.89831,-172.95738)"
       gradientUnits="userSpaceOnUse" />
    <linearGradient
       id="linearGradient8967-7">
      <stop
         id="stop8969-7"
         style="stop-color:#c4ea71;stop-opacity:1;"
         offset="0" />
      <stop
         id="stop8971-2"
         style="stop-color:#7c9d35;stop-opacity:1;"
         offset="1" />
    </linearGradient>
    <linearGradient
       id="linearGradient3319-4">
      <stop
         id="stop3321-9"
         style="stop-color:#96bf3e;stop-opacity:1;"
         offset="0" />
      <stop
         id="stop3323-0"
         style="stop-color:#4d6b0d;stop-opacity:1;"
         offset="1" />
    </linearGradient>
  </defs>
  <metadata
     id="metadata4139">
    <rdf:RDF>
      <cc:Work
         rdf:about="">
        <dc:format>image/svg+xml</dc:format>
        <dc:type
           rdf:resource="http://purl.org/dc/dcmitype/StillImage" />
        <dc:title />
      </cc:Work>
    </rdf:RDF>
  </metadata>
  <g
     transform="matrix(2.6499989,0,0,1.4444458,0.4000001,55.111094)"
     id="g2036"
     style="display:inline">
    <g
       transform="matrix(1.052632,0,0,1.285713,-1.263158,-13.42854)"
       id="g3712"
       style="opacity:0.4">
      <rect
         width="5"
         height="7"
         x="38"
         y="40"
         id="rect2801"
         style="fill:url(#radialGradient2455);fill-opacity:1;stroke:none" />
      <rect
         width="5"
         height="7"
         x="-10"
         y="-47"
         transform="scale(-1,-1)"
         id="rect3696"
         style="fill:url(#radialGradient2457);fill-opacity:1;stroke:none" />
      <rect
         width="28"
         height="7.0000005"
         x="10"
         y="40"
         id="rect3700"
         style="fill:url(#linearGradient2459);fill-opacity:1;stroke:none" />
    </g>
  </g>
  <path
     d="M 109.4913,10.364818 C 108.70732,7.727317 109.19596,4.02414 108.76296,1.508699 l -80.254261,0 0.473668,7.982602"
     id="path2723"
     style="display:inline;fill:url(#linearGradient4333);fill-opacity:1;stroke:url(#linearGradient4335);stroke-width:1.01739764;stroke-linecap:butt;stroke-linejoin:round;stroke-miterlimit:0;stroke-dasharray:none;stroke-dashoffset:0;stroke-opacity:1" />
  <path
     d="m 30.5,12.5 -10.4,0 c -1.484206,0 -2.6,-0.116416 -2.6,-0.268291 l 0,-8.145539 C 17.5,2.150302 18.144001,1.5 20.046842,1.5 L 30.5,1.5"
     id="rect5505-21-3-9"
     style="color:#000000;display:inline;overflow:visible;visibility:visible;fill:url(#linearGradient3156);fill-opacity:1;fill-rule:nonzero;stroke:url(#linearGradient3158);stroke-width:0.99999994;stroke-linecap:round;stroke-linejoin:round;stroke-miterlimit:4;stroke-dasharray:none;stroke-dashoffset:0;stroke-opacity:1;marker:none;enable-background:accumulate" />
  <rect
     style="display:inline;fill:url(#radialGradient3831-6);fill-opacity:1;stroke:url(#linearGradient3153-1);stroke-width:1.01904094;stroke-linecap:round;stroke-linejoin:round;stroke-miterlimit:0;stroke-dasharray:none;stroke-dashoffset:0;stroke-opacity:1"
     id="rect2719-1"
     y="9.4937019"
     x="19.188095"
     ry="2"
     rx="2"
     height="108.98096"
     width="91.302383" />
  <path
     d="m 69.583984,34.992188 c -1.126377,0 -2.259928,0.441274 -3.113281,1.30664 L 40.275391,62.863281 c -1.705117,1.729127 -1.704617,4.543335 0,6.273438 l 26.195312,26.564453 c 1.705762,1.72979 4.51982,1.730279 6.224609,0 L 98.892578,69.136719 c 1.704612,-1.730103 1.705112,-4.54431 0,-6.273438 l -3.804687,-3.855469 a 1.0077282,1.0077282 0 0 0 -1.433594,0 L 69.582031,83.419922 52.40625,65.998047 69.582031,48.580078 l 4.783203,4.84961 -11.697265,11.861328 a 1.0077282,1.0077282 0 0 0 0,1.414062 l 6.197265,6.285156 a 1.0077282,1.0077282 0 0 0 1.433594,0 L 88.890625,54.138672 a 1.0077282,1.0077282 0 0 0 0,-1.414063 L 72.695312,36.298828 c -0.852471,-0.865212 -1.984949,-1.30664 -3.111328,-1.30664 z"
     id="path4582"
     style="color:#000000;clip-rule:nonzero;display:inline;overflow:visible;visibility:visible;opacity:0.05;isolation:auto;mix-blend-mode:normal;color-interpolation:sRGB;color-interpolation-filters:linearRGB;solid-color:#000000;solid-opacity:1;fill:#126400;fill-opacity:1;fill-rule:nonzero;stroke:none;stroke-width:1;stroke-linecap:butt;stroke-linejoin:miter;stroke-miterlimit:4;stroke-dasharray:none;stroke-dashoffset:0;stroke-opacity:1;marker:none;color-rendering:auto;image-rendering:auto;shape-rendering:auto;text-rendering:auto;enable-background:accumulate" />
  <path
     d="m 30.5,9.499994 c 0,0 0,75.792524 0,108.999996 l -10.728851,0 c -1.484205,0 -2.271149,-0.87542 -2.271149,-2.38027 l 0,-106.619726 z"
     id="rect5505-21-3"
     style="color:#000000;display:inline;overflow:visible;visibility:visible;fill:url(#radialGradient3145);fill-opacity:1;fill-rule:nonzero;stroke:url(#linearGradient3147);stroke-width:1;stroke-linecap:round;stroke-linejoin:round;stroke-miterlimit:4;stroke-dasharray:none;stroke-dashoffset:0;stroke-opacity:1;marker:none;enable-background:accumulate" />
  <rect
     width="91"
     height="107"
     rx="1"
     ry="1"
     x="18.5"
     y="10.5"
     id="rect6741-0"
     style="opacity:0.5;fill:none;stroke:url(#linearGradient3142);stroke-width:1;stroke-linecap:round;stroke-linejoin:round;stroke-miterlimit:4;stroke-dasharray:none;stroke-dashoffset:0;stroke-opacity:1" />
  <path
     d="m 18,3.500003 91.44276,0 m -91.44276,2 91.4946,0 m -91.4946,2 91.4298,0"
     id="path3262"
     style="opacity:0.1;fill:none;stroke:url(#radialGradient3231);stroke-width:0.99999994px;stroke-linecap:butt;stroke-linejoin:miter;stroke-opacity:1" />
  <path
     id="path10-0"
     d="M 69.582803,84.854334 50.990441,65.99866 69.582803,47.145659 75.780762,53.429739 63.384847,65.99866 69.582428,72.283883 88.174788,53.430885 71.978667,37.006722 c -1.322532,-1.342299 -3.467688,-1.342299 -4.791352,0 L 40.991899,63.570971 c -1.322532,1.341155 -1.322532,3.516512 0,4.858817 l 26.195795,26.56348 c 1.323663,1.342309 3.468817,1.342309 4.791352,0 l 26.195793,-26.56348 c 1.32253,-1.342305 1.32253,-3.517662 0,-4.858817 L 94.371991,59.71573 69.582803,84.854334 Z"
     style="fill:#126400;fill-opacity:1;color:#000000;clip-rule:nonzero;display:inline;overflow:visible;visibility:visible;opacity:0.15;isolation:auto;mix-blend-mode:normal;color-interpolation:sRGB;color-interpolation-filters:linearRGB;solid-color:#000000;solid-opacity:1;fill-rule:nonzero;stroke:none;stroke-width:1;stroke-linecap:butt;stroke-linejoin:miter;stroke-miterlimit:4;stroke-dasharray:none;stroke-dashoffset:0;stroke-opacity:1;marker:none;filter-blend-mode:normal;filter-gaussianBlur-deviation:0;color-rendering:auto;image-rendering:auto;shape-rendering:auto;text-rendering:auto;enable-background:accumulate" />
  <path
     id="path10"
     d="M 69.582803,83.854336 50.990441,64.998663 69.582803,46.145661 l 6.197959,6.28408 -12.395915,12.568922 6.197581,6.285222 18.59236,-18.852998 -16.196121,-16.424163 c -1.322532,-1.342299 -3.467688,-1.342299 -4.791352,0 L 40.991899,62.570973 c -1.322532,1.341155 -1.322532,3.516512 0,4.858817 l 26.195795,26.563484 c 1.323663,1.342301 3.468817,1.342301 4.791352,0 L 98.174839,67.42979 c 1.32253,-1.342305 1.32253,-3.517662 0,-4.858817 L 94.371991,58.715732 69.582803,83.854336 Z"
     style="fill:#ffffff;fill-opacity:1" />
</svg>

<svg xmlns="http://www.w3.org/2000/svg" xmlns:xlink="http://www.w3.org/1999/xlink" viewBox="0 0 128 128"><defs><radialGradient gradientTransform="matrix(1.33334 0 0 .082 -20.352 -3.924)" gradientUnits="userSpaceOnUse" xlink:href="#a" id="y" fy="114.831" fx="64.389" r="52.5" cy="114.831" cx="64.389"/><linearGradient id="a"><stop offset="0"/><stop offset="1" stop-opacity="0"/></linearGradient><linearGradient gradientTransform="matrix(2.45946 0 0 2.8919 4.973 -5.405)" gradientUnits="userSpaceOnUse" xlink:href="#b" id="x" y2="43" x2="24" y1="5" x1="24"/><linearGradient id="b"><stop offset="0" stop-color="#fff"/><stop offset=".027" stop-color="#fff" stop-opacity=".235"/><stop offset=".974" stop-color="#fff" stop-opacity=".157"/><stop offset="1" stop-color="#fff" stop-opacity=".392"/></linearGradient><radialGradient gradientTransform="matrix(0 6.5316 -6.42787 0 122.514 -37.83)" gradientUnits="userSpaceOnUse" xlink:href="#c" id="v" fy="8.45" fx="7.496" r="20" cy="8.45" cx="7.496"/><linearGradient id="c"><stop offset="0" stop-color="#5f5f5f"/><stop offset=".262" stop-color="#4f4f4f"/><stop offset=".705" stop-color="#3b3b3b"/><stop offset="1" stop-color="#2b2b2b"/></linearGradient><linearGradient gradientTransform="matrix(2.6 0 0 2.79487 5.8 -3.077)" gradientUnits="userSpaceOnUse" xlink:href="#d" id="w" y2="3.899" x2="24" y1="44" x1="24"/><linearGradient id="d"><stop offset="0" stop-color="#272727"/><stop offset="1" stop-color="#454545"/></linearGradient><linearGradient gradientTransform="matrix(2.6 0 0 2.75002 .6 .125)" gradientUnits="userSpaceOnUse" xlink:href="#e" id="r" y2="3" x2="10.654" y1="1" x1="10.654"/><linearGradient id="e"><stop offset="0" stop-color="#f5f5f5"/><stop offset="1" stop-color="#e1e1e1"/></linearGradient><linearGradient gradientTransform="matrix(2.6 0 0 .28205 5.8 .23)" gradientUnits="userSpaceOnUse" xlink:href="#f" id="s" y2="3.899" x2="24" y1="44" x1="24"/><linearGradient id="f"><stop offset="0" stop-color="#272727"/><stop offset="1" stop-color="#454545"/></linearGradient><linearGradient gradientTransform="matrix(2.66467 0 0 4.0926 4.354 -10.572)" gradientUnits="userSpaceOnUse" xlink:href="#e" id="p" y2="4.883" x2="24.64" y1="3.123" x1="24.627"/><linearGradient gradientTransform="matrix(1.90095 0 0 1.9881 6.824 .04)" gradientUnits="userSpaceOnUse" xlink:href="#g" id="q" y2=".065" x2="54.887" y1=".065" x1="5.212"/><linearGradient id="g"><stop offset="0" stop-color="#769a28"/><stop offset=".96" stop-color="#709325"/><stop offset=".963" stop-color="#c2c2c2"/><stop offset="1" stop-color="#c2c2c2"/></linearGradient><radialGradient gradientTransform="matrix(2.00378 0 0 1.4 27.988 -17.4)" gradientUnits="userSpaceOnUse" xlink:href="#h" id="m" fy="43.5" fx="4.993" r="2.5" cy="43.5" cx="4.993"/><linearGradient id="h"><stop offset="0" stop-color="#181818"/><stop offset="1" stop-color="#181818" stop-opacity="0"/></linearGradient><radialGradient gradientTransform="matrix(2.00378 0 0 1.4 -20.012 -104.4)" gradientUnits="userSpaceOnUse" xlink:href="#i" id="n" fy="43.5" fx="4.993" r="2.5" cy="43.5" cx="4.993"/><linearGradient id="i"><stop offset="0" stop-color="#181818"/><stop offset="1" stop-color="#181818" stop-opacity="0"/></linearGradient><linearGradient gradientUnits="userSpaceOnUse" xlink:href="#j" id="o" y2="39.999" x2="25.058" y1="47.028" x1="25.058"/><linearGradient id="j"><stop offset="0" stop-color="#181818" stop-opacity="0"/><stop offset=".5" stop-color="#181818"/><stop offset="1" stop-color="#181818" stop-opacity="0"/></linearGradient><linearGradient x1="32.256" y1="4.683" x2="32.256" y2="60.876" id="u" xlink:href="#k" gradientUnits="userSpaceOnUse" gradientTransform="matrix(1.8829 0 0 1.96025 4.586 -.17)"/><radialGradient xlink:href="#l" id="t" cx="32.5" cy="8.557" fx="32.5" fy="8.557" r="23.5" gradientTransform="matrix(0 5.587 -6.6685 0 121.9 -172.97)" gradientUnits="userSpaceOnUse"/><linearGradient id="l"><stop offset="0" stop-color="#c4ea71"/><stop offset="1" stop-color="#7c9d35"/></linearGradient><linearGradient id="k"><stop offset="0" stop-color="#96bf3e"/><stop offset="1" stop-color="#4d6b0d"/></linearGradient></defs><g opacity=".4"><path fill="url(#m)" d="M38 40h5v7h-5z" transform="matrix(2.78947 0 0 1.85714 -2.947 35.714)"/><path transform="matrix(-2.78947 0 0 -1.85714 -2.947 35.714)" fill="url(#n)" d="M-10-47h5v7h-5z"/><path fill="url(#o)" d="M10 40h28v7H10z" transform="matrix(2.78947 0 0 1.85714 -2.947 35.714)"/></g><path d="M109.49 10.365c-.783-2.638-.294-6.34-.727-8.856H28.51l.472 7.98" fill="url(#p)" stroke="url(#q)" stroke-width="1.017" stroke-linejoin="round" stroke-miterlimit="0"/><path d="M30.5 12.5H20.1c-1.484 0-2.6-.116-2.6-.268V4.086c0-1.936.644-2.586 2.547-2.586H30.5" color="#000" overflow="visible" fill="url(#r)" stroke="url(#s)" stroke-linecap="round" stroke-linejoin="round"/><rect y="9.494" x="19.188" ry="2" rx="2" height="108.981" width="91.302" fill="url(#t)" stroke="url(#u)" stroke-width="1.019" stroke-linecap="round" stroke-linejoin="round" stroke-miterlimit="0"/><path d="M69.584 34.992c-1.126 0-2.26.44-3.113 1.307L40.28 62.86c-1.705 1.73-1.704 4.544 0 6.274L66.47 95.7a4.38 4.38 0 0 0 6.225 0l26.198-26.563c1.704-1.73 1.705-4.545 0-6.274l-3.805-3.855a1.008 1.008 0 0 0-1.434 0L69.582 83.42 52.406 65.998 69.582 48.58l4.783 4.85-11.697 11.86a1.008 1.008 0 0 0 0 1.415l6.197 6.285a1.008 1.008 0 0 0 1.434 0l18.59-18.85a1.008 1.008 0 0 0 0-1.415L72.692 36.3a4.368 4.368 0 0 0-3.11-1.308z" style="isolation:auto;mix-blend-mode:normal" color="#000" overflow="visible" opacity=".05" fill="#126400"/><path d="M30.5 9.5v109H19.77c-1.483 0-2.27-.875-2.27-2.38V9.5z" color="#000" overflow="visible" fill="url(#v)" stroke="url(#w)" stroke-linecap="round" stroke-linejoin="round"/><rect width="91" height="107" rx="1" ry="1" x="18.5" y="10.5" opacity=".5" fill="none" stroke="url(#x)" stroke-linecap="round" stroke-linejoin="round"/><path d="M18 3.5h91.443M18 5.5h91.495M18 7.5h91.43" opacity=".1" fill="none" stroke="url(#y)"/><path d="M69.583 84.854L50.99 66l18.593-18.854 6.198 6.284L63.39 66l6.197 6.284 18.59-18.854L71.98 37.008a3.354 3.354 0 0 0-4.793 0L40.992 63.57a3.47 3.47 0 0 0 0 4.86l26.196 26.563a3.354 3.354 0 0 0 4.79 0L98.176 68.43a3.47 3.47 0 0 0 0-4.86l-3.803-3.854-24.79 25.138z" style="isolation:auto;mix-blend-mode:normal;filter-blend-mode:normal;filter-gaussianBlur-deviation:0" fill="#126400" color="#000" overflow="visible" opacity=".15"/><path d="M69.583 83.854L50.99 65l18.593-18.854 6.198 6.284L63.39 65l6.197 6.284 18.59-18.854L71.98 36.008a3.354 3.354 0 0 0-4.793 0L40.992 62.57a3.47 3.47 0 0 0 0 4.86l26.196 26.563a3.354 3.354 0 0 0 4.79 0L98.176 67.43a3.47 3.47 0 0 0 0-4.86l-3.803-3.854-24.79 25.138z" fill="#fff"/></svg>
